src/main/resources/icons/SwiftPackageManagerIcons/icons/swiftPackageManifest.svg

<svg width="16" height="16" viewBox="0 0 16 16" fill="none" xmlns="http://www.w3.org/2000/svg">
<path fill-rule="evenodd" clip-rule="evenodd" d="M7 1L3 5H7V1Z" fill="#9AA7B0" fill-opacity="0.8"/>
<path fill-rule="evenodd" clip-rule="evenodd" d="M8 1V6H3V15H6V9.3L11 7L13 7.9V1H8Z" fill="#9AA7B0" fill-opacity="0.8"/>
<path fill-rule="evenodd" clip-rule="evenodd" d="M11.3077 11.9656L15 10.1023V14.1023L11.3077 15.9656V11.9656Z" fill="#F26522" fill-opacity="0.7"/>
<path fill-rule="evenodd" clip-rule="evenodd" d="M10.6923 11.9656L6.99995 10.1023V14.1023L10.6923 15.9656V11.9656Z" fill="#F26522" fill-opacity="0.7"/>
<path fill-rule="evenodd" clip-rule="evenodd" d="M14.7538 9.59788L10.9999 8L7.24609 9.59788L10.9999 11.4611L14.7538 9.59788Z" fill="#F26522" fill-opacity="0.7"/>
</svg>

<svg width="16" height="16" viewBox="0 0 16 16" fill="none" xmlns="http://www.w3.org/2000/svg"><rect id="frame" width="16" height="16" fill="none"/><path fill-rule="evenodd" clip-rule="evenodd" d="M7 1L3 5h4V1z" fill="#9AA7B0" fill-opacity=".8"/><path fill-rule="evenodd" clip-rule="evenodd" d="M8 1v5H3v9h3V9.3L11 7l2 .9V1H8z" fill="#9AA7B0" fill-opacity=".8"/><path fill-rule="evenodd" clip-rule="evenodd" d="M11.308 11.966L15 10.102v4l-3.692 1.864v-4z" fill="#F26522" fill-opacity=".7"/><path fill-rule="evenodd" clip-rule="evenodd" d="M10.692 11.966L7 10.102v4l3.692 1.864v-4z" fill="#F26522" fill-opacity=".7"/><path fill-rule="evenodd" clip-rule="evenodd" d="M14.754 9.598L11 8 7.246 9.598 11 11.46l3.754-1.863z" fill="#F26522" fill-opacity=".7"/></svg>
